synths/sXAU.svg

<svg width="480" height="480" viewBox="0 0 480 480" fill="none" xmlns="http://www.w3.org/2000/svg"><mask id="mask0-032441" maskUnits="userSpaceOnUse" x="0" y="0" width="480" height="480"><circle cx="240" cy="240" r="240" fill="url(#paint0_linear-024359)"/></mask><g mask="url(#mask0-032441)"><circle cx="240" cy="240" r="240" fill="#31D8A4"/><circle cx="240" cy="240" r="208" fill="#fff"/></g><circle cx="240" cy="240" r="184" fill="#0E052F"/><circle cx="240" cy="240" r="184" fill="#0E052F"/><path fill-rule="evenodd" clip-rule="evenodd" d="M218.311 130.263a10 10 0 019.618-7.263h32.048a10 10 0 019.695 7.547l13.253 52.389h-79.606l14.992-52.673zm51.547 59.785a10 10 0 00-9.618 7.262l-14.991 52.674h79.606l-13.254-52.389a10 10 0 00-9.694-7.547h-32.049zm-87.669.264a10 10 0 00-9.618 7.262l-14.991 52.673h79.606l-13.254-52.388a9.999 9.999 0 00-9.694-7.547h-32.049zm-42.58 65.643a10.001 10.001 0 00-9.618 7.263L115 315.891h79.606l-13.254-52.388a9.999 9.999 0 00-9.694-7.548h-32.049zm74.925 7.263a10.001 10.001 0 019.618-7.263h32.049a9.999 9.999 0 019.694 7.548l13.254 52.388h-79.606l14.991-52.673zm95.469-7.154a10 10 0 00-9.618 7.263L285.394 316H365l-13.254-52.388a10 10 0 00-9.694-7.548h-32.049z" fill="url(#paint1_linear-527252)"/><defs><linearGradient id="paint0_linear-024359" x1="240" y1="0" x2="240" y2="701.818" gradientUnits="userSpaceOnUse"><stop stop-color="#08021E"/><stop offset="1" stop-color="#1F0777"/></linearGradient><linearGradient id="paint1_linear-527252" x1="240" y1="123" x2="240" y2="316" gradientUnits="userSpaceOnUse"><stop stop-color="#F2DE82"/><stop offset="1" stop-color="#D1A866"/></linearGradient></defs></svg>

<svg width="480" height="480" viewBox="0 0 480 480" fill="none" xmlns="http://www.w3.org/2000/svg">
<mask id="mask0-032441" mask-type="alpha" maskUnits="userSpaceOnUse" x="0" y="0" width="480" height="480">
<circle cx="240" cy="240" r="240" fill="url(#paint0_linear-024359)"/>
</mask>
<g mask="url(#mask0-032441)">
<circle cx="240" cy="240" r="240" fill="#31D8A4"/>
<circle cx="240" cy="240" r="208" fill="white"/>
</g>
<circle cx="240" cy="240" r="184" fill="#0E052F"/>
<circle cx="240" cy="240" r="184" fill="#0E052F"/>
<path fill-rule="evenodd" clip-rule="evenodd" d="M218.311 130.263C219.534 125.965 223.46 123 227.929 123H259.977C264.555 123 268.549 126.109 269.672 130.547L282.925 182.936H203.319L218.311 130.263ZM269.858 190.048C265.39 190.048 261.463 193.013 260.24 197.31L245.249 249.984H324.855L311.601 197.595C310.478 193.157 306.485 190.048 301.907 190.048H269.858ZM182.189 190.312C177.721 190.312 173.795 193.276 172.571 197.574L157.58 250.247H237.186L223.932 197.859C222.81 193.421 218.816 190.312 214.238 190.312H182.189ZM139.609 255.955C135.141 255.955 131.215 258.92 129.991 263.218L115 315.891H194.606L181.352 263.503C180.23 259.064 176.236 255.955 171.658 255.955H139.609ZM214.534 263.218C215.758 258.92 219.684 255.955 224.152 255.955H256.201C260.779 255.955 264.773 259.064 265.895 263.503L279.149 315.891H199.543L214.534 263.218ZM310.003 256.064C305.535 256.064 301.608 259.029 300.385 263.327L285.394 316H365L351.746 263.612C350.623 259.173 346.63 256.064 342.052 256.064H310.003Z" fill="url(#paint1_linear-527252)"/>
<defs>
<linearGradient id="paint0_linear-024359" x1="240" y1="0" x2="240" y2="701.818" gradientUnits="userSpaceOnUse">
<stop stop-color="#08021E"/>
<stop offset="1" stop-color="#1F0777"/>
</linearGradient>
<linearGradient id="paint1_linear-527252" x1="240" y1="123" x2="240" y2="316" gradientUnits="userSpaceOnUse">
<stop stop-color="#F2DE82"/>
<stop offset="1" stop-color="#D1A866"/>
</linearGradient>
</defs>
</svg>
